SharedPackages/Infrastructure/DesignResourcesKitIcons/Sources/DesignResourcesKitIcons/DesignSystemImages.xcassets/Color/16px/Fire-Color-16.imageset/Fire-Color-16.svg

<svg width="16" height="16" viewBox="0 0 16 16" fill="none" xmlns="http://www.w3.org/2000/svg">
<path d="M7.99977 8C9.39974 8.48 12.4331 11.4024 12.4331 12.7704C12.4331 14.2456 9.86643 15.2 7.99977 15.2C6.13311 15.2 3.56641 14.2456 3.56641 12.7704C3.56641 11.2951 6.59974 8.48 7.99977 8Z" fill="#FFC95C"/>
<path d="M6.66162 0.5C7.98491 1.37989 8.07018 2.85001 8.44629 4.25C8.51004 4.48727 8.85302 5.5 10 5.5C11.0196 5.5 11.4414 4.8178 11.5688 4.5C11.6963 4.18217 11.76 3.49993 11.8237 3.55713C11.8894 3.61607 14.4999 5.96759 14.5 10.0337C14.5 12.4801 12.5737 14.5161 10.0034 15.2275C10.6672 14.6832 11 13.8546 11 12.9692C11 11.5442 9.33334 10.0912 8 8.75C6.66667 10.0912 5 11.4325 5 12.9692C5.00003 13.8544 5.33248 14.6832 5.99609 15.2275C3.42607 14.516 1.5 12.4799 1.5 10.0337C1.50012 5.96608 4.94105 4.94903 6.66162 0.5Z" fill="#F05F2B"/>
<path d="M14 10.0337C13.9999 7.37272 12.8155 5.48795 12.0737 4.56791C12.0701 4.57936 12.0672 4.59093 12.0635 4.60209L12.0327 4.68608C11.8637 5.10745 11.303 6.00004 10 6.00004C9.25526 6.00004 8.74958 5.66216 8.43359 5.2852C8.20651 5.01426 8.0788 4.72669 8.01172 4.5352L7.96338 4.37992C7.86655 4.0195 7.78666 3.64709 7.70801 3.31108C7.62737 2.96659 7.54531 2.64693 7.43848 2.34867C7.29919 1.95983 7.12056 1.61676 6.85742 1.32377C5.97441 3.27072 4.77645 4.55704 3.82324 5.72612C2.76932 7.01873 2.00006 8.17625 2 10.0337C2 11.7346 3.06061 13.2618 4.69092 14.1617C4.58308 13.8403 4.52074 13.5018 4.50439 13.1578L4.5 12.9693C4.5 12.0197 5.01296 11.1849 5.61719 10.4649C6.21798 9.74904 7.00952 9.03724 7.64551 8.3975L7.68213 8.3643C7.77127 8.29084 7.88348 8.25004 8 8.25004C8.13309 8.25004 8.26065 8.30314 8.35449 8.3975C9.00082 9.04763 9.78299 9.77754 10.3862 10.5108C10.9828 11.236 11.5 12.0725 11.5 12.9693L11.4956 13.1578C11.4793 13.5017 11.4164 13.8399 11.3086 14.1612C12.939 13.2614 14 11.7347 14 10.0337ZM15 10.0337C15 12.7653 12.8593 14.9559 10.1367 15.7095C9.90903 15.7725 9.66833 15.6673 9.55957 15.4576C9.4509 15.2478 9.50386 14.9906 9.68652 14.8409C10.1819 14.4346 10.4633 13.8154 10.4966 13.1114L10.5 12.9693C10.5 12.4412 10.1837 11.8388 9.61377 11.146C9.14613 10.5776 8.57257 10.0206 7.99805 9.45268C7.41962 10.0176 6.85265 10.5481 6.38281 11.108C5.82049 11.778 5.5 12.3821 5.5 12.9693L5.50342 13.1114C5.5367 13.8154 5.81783 14.4346 6.31299 14.8409C6.49567 14.9907 6.54874 15.2483 6.43994 15.458C6.33112 15.6676 6.0904 15.7725 5.86279 15.7095C3.14048 14.9558 1 12.7651 1 10.0337C1.00006 7.82367 1.95167 6.43882 3.04834 5.09379C4.14443 3.74949 5.37044 2.45273 6.19531 0.319866L6.21875 0.268108C6.27954 0.152014 6.38392 0.0636059 6.51025 0.0234789C6.6547 -0.0223929 6.81226 -0.00035926 6.93848 0.0835375C7.7165 0.600866 8.12247 1.29273 8.37988 2.01127C8.50674 2.36541 8.59918 2.73077 8.68164 3.08305C8.7661 3.44388 8.83799 3.78064 8.9292 4.12016L8.95703 4.20854C8.99625 4.3194 9.07174 4.48935 9.2002 4.64262C9.35839 4.83134 9.59776 5.00004 10 5.00004C10.7362 5.00004 11.0191 4.52822 11.105 4.31401L11.1357 4.21977C11.1664 4.11094 11.1964 3.9601 11.2295 3.79155C11.248 3.69692 11.2702 3.5852 11.2935 3.50151C11.3024 3.46937 11.3243 3.39033 11.3682 3.31547C11.3838 3.28882 11.4509 3.17382 11.5942 3.10453C11.6803 3.06298 11.7907 3.03987 11.9106 3.06254C11.9963 3.07874 12.0639 3.11416 12.1138 3.14994L12.1577 3.1851L12.3081 3.32865C12.8988 3.92012 14.9999 6.28559 15 10.0337Z" fill="url(#paint0_linear_13193_106605)"/>
<defs>
<linearGradient id="paint0_linear_13193_106605" x1="8" y1="0" x2="8" y2="15.7277" gradientUnits="userSpaceOnUse">
<stop stop-color="#CC3B0A"/>
<stop offset="1" stop-color="#9E2B08"/>
</linearGradient>
</defs>
</svg>

<svg fill="none" viewBox="0 0 16 16" xmlns="http://www.w3.org/2000/svg">
  <path fill="#FC3" d="M8 8c1.4.48 4.433 3.402 4.433 4.77 0 1.476-2.567 2.43-4.433 2.43-1.867 0-4.434-.954-4.434-2.43C3.566 11.295 6.6 8.48 8 8Z"/>
  <path fill="url(#Fire-Color-16_svg__a)" d="M6.662.5c1.323.88 1.408 2.35 1.784 3.75.064.237.407 1.25 1.554 1.25 1.02 0 1.441-.682 1.569-1 .127-.318.191-1 .255-.943.065.06 2.676 2.41 2.676 6.477 0 2.446-1.926 4.482-4.497 5.193.664-.544.997-1.372.997-2.258 0-1.425-1.667-2.878-3-4.219-1.333 1.341-3 2.682-3 4.22 0 .884.332 1.713.996 2.257-2.57-.711-4.496-2.747-4.496-5.193C1.5 5.966 4.941 4.949 6.662.5Z"/>
  <path fill="url(#Fire-Color-16_svg__b)" d="M14 10.034a8.728 8.728 0 0 0-1.926-5.466l-.01.034-.031.084C11.863 5.107 11.303 6 10 6c-.745 0-1.25-.338-1.566-.715a2.435 2.435 0 0 1-.422-.75l-.049-.155c-.096-.36-.176-.733-.255-1.069a8.835 8.835 0 0 0-.27-.962c-.139-.39-.317-.732-.58-1.025-.884 1.947-2.082 3.233-3.035 4.402C2.77 7.02 2 8.176 2 10.034c0 1.7 1.06 3.228 2.69 4.128a3.712 3.712 0 0 1-.186-1.004l-.004-.189c0-.95.513-1.784 1.117-2.504.601-.716 1.393-1.428 2.029-2.067l.036-.034a.5.5 0 0 1 .672.034c.647.65 1.429 1.38 2.032 2.113.597.725 1.114 1.562 1.114 2.458l-.004.189a3.76 3.76 0 0 1-.187 1.003c1.63-.9 2.691-2.426 2.691-4.127Zm1 0c0 2.731-2.14 4.922-4.863 5.675a.5.5 0 0 1-.45-.868c.495-.406.776-1.026.81-1.73l.003-.142c0-.528-.316-1.13-.886-1.823-.468-.568-1.041-1.125-1.616-1.693-.578.565-1.145 1.095-1.615 1.655-.563.67-.883 1.274-.883 1.861l.003.142c.034.704.315 1.324.81 1.73a.5.5 0 0 1-.45.869C3.14 14.956 1 12.764 1 10.034c0-2.21.952-3.595 2.048-4.94C4.144 3.749 5.37 2.453 6.195.32L6.22.268a.5.5 0 0 1 .72-.184C7.715.6 8.121 1.293 8.378 2.01c.128.354.22.72.303 1.072.084.36.156.698.247 1.037l.028.089c.04.11.115.28.243.434.158.188.398.357.8.357.736 0 1.02-.472 1.105-.686l.03-.094c.031-.11.061-.26.095-.428.018-.095.04-.207.063-.29a.78.78 0 0 1 .075-.187c.016-.026.083-.141.226-.21a.51.51 0 0 1 .52.045l.044.035.15.144C12.898 3.92 15 6.286 15 10.034Z"/>
  <defs>
    <linearGradient id="Fire-Color-16_svg__a" x1="8.069" x2="9.53" y1="3.446" y2="13.96" gradientUnits="userSpaceOnUse">
      <stop stop-color="#FA8B38"/>
      <stop offset=".52" stop-color="#E72A57"/>
      <stop offset="1" stop-color="#CC165B"/>
    </linearGradient>
    <linearGradient id="Fire-Color-16_svg__b" x1="8" x2="8" y1="0" y2="15.728" gradientUnits="userSpaceOnUse">
      <stop stop-color="#DE5833"/>
      <stop offset="1" stop-color="#9A3216"/>
    </linearGradient>
  </defs>
</svg>
